svgs/sharp-solid/trash-can-undo.svg

<svg xmlns="http://www.w3.org/2000/svg" viewBox="0 0 448 512"><!--! Font Awesome Pro 6.6.0 by @fontawesome - https://fontawesome.com License - https://fontawesome.com/license (Commercial License) Copyright 2024 Fonticons, Inc. --><path d="M304 0l16 32 128 0 0 64L0 96 0 32l128 0L144 0 304 0zM32 128l384 0 0 384L32 512l0-384zM209 241l17-17L192 190.1l-17 17-64 64-17 17 17 17 64 64 17 17L225.9 352l-17-17-23-23 54.1 0c22.1 0 40 17.9 40 40l0 40 0 24 48 0 0-24 0-40c0-48.6-39.4-88-88-88l-54.1 0 23-23z"/></svg>

<svg xmlns="http://www.w3.org/2000/svg" viewBox="0 0 448 512"><!--! Font Awesome Pro 6.4.2 by @fontawesome - https://fontawesome.com License - https://fontawesome.com/license (Commercial License) Copyright 2023 Fonticons, Inc. --><path d="M304 0l16 32H448V96H0V32H128L144 0H304zM32 128H416V512H32V128zM209 241l17-17L192 190.1l-17 17-64 64-17 17 17 17 64 64 17 17L225.9 352l-17-17-23-23H240c22.1 0 40 17.9 40 40v40 24h48V392 352c0-48.6-39.4-88-88-88H185.9l23-23z"/></svg>
